images/pillar-card-icon3.svg

<svg class="w-6 h-6" width="24" height="24" viewBox="0 0 24 24" fill="none" xmlns="http://www.w3.org/2000/svg"><path d="M21 12C21 7.02944 16.9706 3 12 3C7.02944 3 3 7.02944 3 12C3 16.9706 7.02944 21 12 21C16.9706 21 21 16.9706 21 12ZM23 12C23 18.0751 18.0751 23 12 23C5.92487 23 1 18.0751 1 12C1 5.92487 5.92487 1 12 1C18.0751 1 23 5.92487 23 12Z" fill="#c39900" style="fill-opacity:1;"/><path d="M14.9961 11.6758C14.9245 8.69287 13.8664 5.82525 12 3.51562C10.0661 5.90881 9 8.90114 9 12L9.00391 12.3242C9.07549 15.3069 10.1339 18.1739 12 20.4834C13.9336 18.0903 15 15.0986 15 12L14.9961 11.6758ZM16.9951 12.373C16.9026 16.2184 15.3834 19.8976 12.7246 22.6895C12.5359 22.8876 12.2737 23 12 23C11.7263 23 11.4641 22.8876 11.2754 22.6895C8.61661 19.8976 7.09737 16.2184 7.00488 12.373L7 12C7 8.02012 8.53074 4.1926 11.2754 1.31055L11.3496 1.24023C11.5299 1.08586 11.7604 1 12 1C12.2737 1 12.5359 1.11237 12.7246 1.31055C15.4693 4.1926 17 8.02012 17 12L16.9951 12.373Z" fill="#c39900" style="fill-opacity:1;"/><path d="M22 11C22.5523 11 23 11.4477 23 12C23 12.5523 22.5523 13 22 13H2C1.44772 13 1 12.5523 1 12C1 11.4477 1.44772 11 2 11H22Z" fill="#c39900" style="fill-opacity:1;"/></svg>

<svg xmlns="http://www.w3.org/2000/svg" width="24" height="24" fill="none" class="w-6 h-6" viewBox="0 0 24 24"><path fill="#c39900" d="M21 12a9 9 0 1 0-18 0 9 9 0 0 0 18 0m2 0c0 6.075-4.925 11-11 11S1 18.075 1 12 5.925 1 12 1s11 4.925 11 11"/><path fill="#c39900" d="M14.996 11.676A13.5 13.5 0 0 0 12 3.516 13.5 13.5 0 0 0 9 12l.004.324A13.5 13.5 0 0 0 12 20.484 13.5 13.5 0 0 0 15 12zm2 .697a15.5 15.5 0 0 1-4.271 10.317 1 1 0 0 1-1.45 0 15.5 15.5 0 0 1-4.27-10.317L7 12a15.5 15.5 0 0 1 4.275-10.69l.075-.07a1 1 0 0 1 1.375.07A15.5 15.5 0 0 1 17 12z"/><path fill="#c39900" d="M22 11a1 1 0 1 1 0 2H2a1 1 0 1 1 0-2z"/></svg>
